src/assets/Icons/Services3.svg

<svg width="81" height="80" viewBox="0 0 81 80" fill="none" xmlns="http://www.w3.org/2000/svg">
<path opacity="0.3" d="M80.5 40C80.5 62.0914 62.5914 80 40.5 80C18.4086 80 0.5 62.0914 0.5 40C0.5 17.9086 18.4086 0 40.5 0C62.5914 0 80.5 17.9086 80.5 40ZM11.4071 40C11.4071 56.0675 24.4325 69.0929 40.5 69.0929C56.5675 69.0929 69.5929 56.0675 69.5929 40C69.5929 23.9325 56.5675 10.9071 40.5 10.9071C24.4325 10.9071 11.4071 23.9325 11.4071 40Z" fill="#2F2E30"/>
<circle cx="40.5" cy="40" r="29" fill="black"/>
<path d="M40.9278 38.1456V38.6456L41.4278 38.6456C42.0916 38.6457 42.739 38.8514 43.281 39.2346C43.8229 39.6178 44.2327 40.1595 44.454 40.7851C44.4727 40.8381 44.4808 40.8941 44.4778 40.9502C44.4748 41.0062 44.4608 41.0611 44.4366 41.1117C44.4124 41.1624 44.3784 41.2077 44.3367 41.2452C44.295 41.2828 44.2463 41.3117 44.1933 41.3304C44.1404 41.3491 44.0844 41.3571 44.0283 41.3542C43.9723 41.3512 43.9174 41.3372 43.8667 41.313C43.7645 41.2641 43.6858 41.1766 43.6481 41.0697L43.648 41.0695C43.4856 40.6104 43.1849 40.213 42.7873 39.9319C42.3896 39.6509 41.9146 39.5 41.4277 39.5002L40.9278 39.5003V40.0002V43.7092V44.2092H41.4278C42.2789 44.2092 43.0952 44.5473 43.697 45.1491C44.2988 45.7509 44.6369 46.5672 44.6369 47.4183C44.6369 48.2694 44.2988 49.0856 43.697 49.6874C43.0952 50.2892 42.2789 50.6273 41.4278 50.6273H40.9278V51.1273V51.5546H40.0733V51.1273V50.6273L39.5733 50.6273C38.9096 50.6273 38.2621 50.4215 37.7202 50.0383C37.1782 49.6551 36.7684 49.1134 36.5471 48.4876L36.5472 48.4875L36.5422 48.4744C36.5216 48.4211 36.512 48.3642 36.5138 48.3071C36.5156 48.25 36.5289 48.1939 36.5528 48.142C36.5767 48.0901 36.6107 48.0435 36.6529 48.005L36.317 47.6367L36.6529 48.005C36.6952 47.9665 36.7447 47.9369 36.7985 47.9179C36.8524 47.8988 36.9095 47.8908 36.9665 47.8942C37.0236 47.8977 37.0793 47.9125 37.1305 47.9379C37.1817 47.9632 37.2273 47.9986 37.2646 48.0419C37.3019 48.0852 37.3301 48.1355 37.3476 48.1899L37.3499 48.1969L37.3523 48.2039C37.6768 49.1186 38.5484 49.7728 39.5733 49.7728H40.0733V49.2728V45.5637V45.0637H39.5733C38.7222 45.0637 37.906 44.7256 37.3042 44.1238C36.7024 43.522 36.3643 42.7058 36.3643 41.8547C36.3643 41.0036 36.7024 40.1874 37.3042 39.5856C37.906 38.9837 38.7222 38.6456 39.5733 38.6456H40.0733V38.1456V37.7184H40.9278V38.1456ZM40.0733 40.0002V39.5002H39.5733C38.9488 39.5002 38.35 39.7482 37.9084 40.1898C37.4668 40.6314 37.2188 41.2302 37.2188 41.8547C37.2188 42.4792 37.4668 43.078 37.9084 43.5196C38.35 43.9612 38.9488 44.2092 39.5733 44.2092H40.0733V43.7092V40.0002ZM40.9278 49.2728V49.7728H41.4278C42.0523 49.7728 42.6512 49.5247 43.0927 49.0832C43.5343 48.6416 43.7824 48.0427 43.7824 47.4183C43.7824 46.7938 43.5343 46.1949 43.0927 45.7534C42.6512 45.3118 42.0523 45.0637 41.4278 45.0637H40.9278V45.5637V49.2728Z" fill="#FAFAFA" stroke="#FAFAFA"/>
<path d="M33.2057 32.5777L33.5219 32.6998C37.8707 34.3798 43.1083 34.3797 47.457 32.698L47.7695 32.5772L48.0001 32.8203C49.8981 34.8211 51.4858 37.0948 52.7105 39.5658L52.7115 39.5677C53.9873 42.1703 54.7037 44.8133 54.5867 47.1301L54.5867 47.1301C54.4723 49.3912 53.5716 51.3572 51.5218 52.806L51.5218 52.806C49.4129 54.296 45.9467 55.3336 40.5354 55.3336C35.1198 55.3336 31.6397 54.3141 29.5132 52.8421L29.5129 52.842C27.4494 51.412 26.5376 49.472 26.4101 47.2374L33.2057 32.5777ZM33.2057 32.5777L32.9752 32.8262M33.2057 32.5777L32.9752 32.8262M32.9752 32.8262C31.1573 34.7856 29.4657 37.1897 28.251 39.6929L28.2509 39.6929M32.9752 32.8262L28.2509 39.6929M28.2509 39.6929C26.9804 42.3123 26.2784 44.9432 26.4101 47.2372L28.2509 39.6929ZM50.3428 26.1814C50.7832 26.3992 51.1642 26.6076 51.4775 26.7943L48.3457 31.3725L48.1141 31.7111L48.401 32.0044C50.3394 33.9861 52.1697 36.5163 53.4805 39.1919C54.7935 41.8721 55.5679 44.6624 55.441 47.1735C55.3151 49.6637 54.3054 51.8863 52.0163 53.5035C49.7051 55.1363 46.0382 56.1881 40.5364 56.1881C35.0332 56.1881 31.3544 55.1551 29.028 53.5441C26.7245 51.9489 25.6991 49.7543 25.558 47.2856C25.4157 44.7951 26.1758 42.0153 27.4835 39.3201C28.7889 36.6299 30.6229 34.0598 32.5812 31.9993L32.8589 31.7071L32.6323 31.3738L29.5225 26.7979C29.6798 26.7052 29.8536 26.6075 30.043 26.5066L30.043 26.5066L30.0447 26.5056C30.2353 26.4032 30.4408 26.2977 30.6614 26.1901L30.8573 26.0946C33.1034 25.024 36.6645 23.8094 40.5364 23.8094C44.4384 23.8094 47.9975 25.0428 50.2165 26.12C50.2165 26.12 50.2165 26.1201 50.2165 26.1201L50.3412 26.1806C50.3417 26.1808 50.3422 26.1811 50.3428 26.1814ZM46.7245 32.0592L46.8779 32.0047L46.9698 31.8703L49.7117 27.8618L50.2968 27.0064L49.2631 27.0808C46.6696 27.2675 43.6003 27.8748 40.6554 28.7274C38.6714 29.3006 36.4387 29.2193 34.3339 28.8311C33.8046 28.7329 33.279 28.6161 32.758 28.4809L31.4726 28.1471L32.2188 29.2457L33.9991 31.8671L34.091 32.0024L34.245 32.0572C38.1692 33.4543 42.7996 33.4542 46.7245 32.0592ZM32.08 26.4803L30.8004 27.0235L32.1328 27.4198C32.8897 27.645 33.6821 27.8413 34.4877 27.9905L34.4881 27.9905C36.523 28.3653 38.6079 28.4298 40.4168 27.9058L40.4175 27.9056C42.3859 27.3322 44.388 26.8812 46.4122 26.5552L46.4768 25.5828C44.7353 25.0585 42.6905 24.664 40.5354 24.664C37.2536 24.664 34.2063 25.5779 32.08 26.4803Z" fill="#FAFAFA" stroke="#FAFAFA"/>
</svg>

<svg xmlns="http://www.w3.org/2000/svg" width="81" height="80" fill="none" xmlns:v="https://vecta.io/nano"><path opacity=".3" d="M80.5 40c0 22.091-17.909 40-40 40S.5 62.091.5 40s17.909-40 40-40 40 17.909 40 40zm-69.093 0c0 16.068 13.025 29.093 29.093 29.093S69.593 56.068 69.593 40 56.568 10.907 40.5 10.907 11.407 23.933 11.407 40z" fill="#2f2e30"/><circle cx="40.5" cy="40" r="29" fill="#000"/><path d="M40.928 38.146v.5h.5a3.21 3.21 0 0 1 3.026 2.139.42.42 0 0 1 .024.165c-.003.056-.017.111-.041.161a.42.42 0 0 1-.1.133c-.042.037-.09.067-.143.085a.43.43 0 0 1-.546-.26h0c-.162-.459-.463-.856-.861-1.138a2.35 2.35 0 0 0-1.36-.432h-.5v.5 3.709.5h.5a3.21 3.21 0 0 1 3.209 3.209 3.21 3.21 0 0 1-3.209 3.209h-.5v.5.427h-.854v-.427-.5h-.5a3.21 3.21 0 0 1-3.026-2.14h0l-.005-.013c-.021-.053-.03-.11-.028-.167a.43.43 0 0 1 .039-.165c.024-.052.058-.099.1-.137l-.336-.368.336.368a.43.43 0 0 1 .146-.087c.054-.019.111-.027.168-.024a.41.41 0 0 1 .164.044.44.44 0 0 1 .134.104c.037.043.066.094.083.148l.002.007.002.007c.325.915 1.196 1.569 2.221 1.569h.5v-.5-3.709-.5h-.5a3.21 3.21 0 0 1-3.209-3.209 3.21 3.21 0 0 1 3.209-3.209h.5v-.5-.427h.854v.427zM40.073 40v-.5h-.5c-.625 0-1.223.248-1.665.69s-.69 1.04-.69 1.665.248 1.223.69 1.665 1.04.69 1.665.69h.5v-.5V40zm.854 9.273v.5h.5c.625 0 1.223-.248 1.665-.69s.69-1.04.69-1.665-.248-1.223-.69-1.665-1.04-.69-1.665-.69h-.5v.5 3.709zm-7.721-16.695l.316.122c4.349 1.68 9.586 1.68 13.935-.002l.313-.121.231.243a27.63 27.63 0 0 1 4.71 6.746l.001.002c1.276 2.603 1.992 5.246 1.875 7.562h0c-.114 2.261-1.015 4.227-3.065 5.676h0c-2.109 1.49-5.575 2.528-10.986 2.528s-8.896-1.019-11.022-2.491h0c-2.063-1.43-2.975-3.37-3.103-5.605l6.796-14.66zm0 0l-.23.248m.23-.248l-.23.248m0 0c-1.818 1.959-3.51 4.364-4.724 6.867h0m4.724-6.867l-4.724 6.867m0 0c-1.271 2.619-1.973 5.25-1.841 7.544l1.841-7.544zm22.092-13.512a16.93 16.93 0 0 1 1.135.613l-3.132 4.578-.232.339.287.293c1.938 1.982 3.769 4.512 5.079 7.188s2.087 5.471 1.961 7.982c-.126 2.49-1.136 4.713-3.425 6.33-2.311 1.633-5.978 2.685-11.48 2.685s-9.182-1.033-11.508-2.644c-2.303-1.595-3.329-3.79-3.47-6.258-.142-2.491.618-5.27 1.925-7.966 1.305-2.69 3.139-5.26 5.098-7.321l.278-.292-.227-.333-3.11-4.576a13.67 13.67 0 0 1 .52-.291h0l.002-.001a17.69 17.69 0 0 1 .617-.316l.196-.096c2.246-1.071 5.807-2.285 9.679-2.285 3.902 0 7.461 1.233 9.68 2.311l.125.061zm-3.618 5.878l.153-.054.092-.134 2.742-4.009.585-.855-1.034.074c-2.593.187-5.663.794-8.608 1.647-1.984.573-4.217.492-6.321.104-.529-.098-1.055-.215-1.576-.35l-1.285-.334.746 1.099L34 31.868l.092.135.154.055a19.12 19.12 0 0 0 12.48.002zM32.08 26.48l-1.28.543 1.332.396a22.95 22.95 0 0 0 2.355.571h0c2.035.375 4.12.439 5.929-.085h.001a49.75 49.75 0 0 1 5.995-1.35l.065-.972c-1.741-.524-3.786-.919-5.941-.919-3.282 0-6.329.914-8.455 1.816z" fill="#fafafa" stroke="#fafafa"/></svg>
